dist/icons/svgs/box-archive-solid.svg

<svg xmlns="http://www.w3.org/2000/svg" width="24" height="24" fill="currentcolor" class="icon-box-archive-solid" viewBox="0 0 24 24">
  <path d="M3.25 3.25H20.75C21.4141 3.25 22 3.83594 22 4.5V5.75C22 6.45312 21.4141 7 20.75 7H3.25C2.54688 7 2 6.45312 2 5.75V4.5C2 3.83594 2.54688 3.25 3.25 3.25ZM3.25 8.25H20.75V18.25C20.75 19.6562 19.6172 20.75 18.25 20.75H5.75C4.34375 20.75 3.25 19.6562 3.25 18.25V8.25ZM8.25 11.375C8.25 11.7266 8.52344 12 8.875 12H15.125C15.4375 12 15.75 11.7266 15.75 11.375C15.75 11.0625 15.4375 10.75 15.125 10.75H8.875C8.52344 10.75 8.25 11.0625 8.25 11.375Z"/>
</svg>

<svg xmlns="http://www.w3.org/2000/svg" width="24" height="24" fill="currentColor" class="icon-box-archive-solid" viewBox="0 0 24 24">
  <path d="M3.25 3.25h17.5c.664 0 1.25.586 1.25 1.25v1.25C22 6.453 21.414 7 20.75 7H3.25C2.547 7 2 6.453 2 5.75V4.5c0-.664.547-1.25 1.25-1.25m0 5h17.5v10c0 1.406-1.133 2.5-2.5 2.5H5.75a2.47 2.47 0 0 1-2.5-2.5zm5 3.125c0 .352.273.625.625.625h6.25a.64.64 0 0 0 .625-.625c0-.312-.312-.625-.625-.625h-6.25a.64.64 0 0 0-.625.625"/>
</svg>
